X: 620
T: Düşmesin Miskin Gönüller
C: Zaharya
O: Turkey
F: http://compmusic.upf.edu/node/140
N: hicaz-humayun--beste--agircenber--dusmesin_miskin--zaharya
N: makam= hicaz-humayun
N: form= beste
N: usul= agircenber = 24/2
M: 24/2
L: 1/16
K: C _7/8B ^c  
Q: 1/4=37.5
%%MIDI tuningsystem comma53
d8 c2 d2 {f}e2 ed  | d8 z2 d2 c2 d2  | \
w:  Ah   |  *  düş *  me  | 
e4 f2 e2 dc =B2 c2 d2  | c4 d8 z4  | 
w:  sin   |  mis  | 
d4 e2 d2 c4 d2 c2  | B4 c2 B2 A4 A2 A2  | \
w:  kin   |   | 
A8 A2 c2 B2 A2  | A^G F2 G2 A2 G2 A2 G2 ^F2  | 
w:  *  kin   |  *  *  *  *  *  *  *  *  gö  | 
A8 A4 c4  | z2 A4 B2 A2 e2 d2 c2  | c2 B4 A2 ^G2 A2 {c}B2 BA  | \
w:  nül   |  nül  |  ler   | 
A8 A4 z4  | 
w:   | 
e3d c2 d2 c2 d2 {f}e2 ed  | d6 c2 z2 =B4 c2  | \
w:  ah    |  *  *  Zülf_ i   | 
d4 c2 d2 e2 g2 f2 e2  | 
w:  an  | 
e3d c2 d2 c4 d4  | d2 z2 d8 e4  | e8 e2 f2 e2 f2  | \
w:  ber   |  *  bû   |  *  bû   | 
e4 f2 e2 d2 c2 d4  | 
w:   | 
d2 z2 c2 d2 e2 f2 e2 d2  | e3d c2 d2 c2 d2 {f}e2 ed  | \
w:  *  bû *  *  *  *  la  |  ra    | 
d8 d4 z4  | d4 e2 d2 c4 d2 c2  | 
w:   |  Öm *  *  rüm   | 
B4 c2 B2 A6 A2  | A2 c2 B2 A2 A3G ^F2 G2  | \
w:  câ *  *  nım  a  |  man    | 
A2 B2 A2 G2 z2 A4 =B2  | A4 A2 G2 ^F8  | 
w:  Ah  *  *  *  ye  le   |  lel  *  *  li   | 
G4 ^F2 E2 F2 G2 F2 G2  | A8 z4 A2 A2  | \
w:  te  re  li  yel  *  *  le   |  lel   Le  le   | 
B3A B2 c2 B3A G2 G2  | d8 d2 c2 =B2 c2  | 
w:  lel  *  *  *  *  *  le  le   |  lel  *  *  le  le   | 
d8 z4 c2 d2  | e2 f2 e2 d2 e2 g2 f2 e2  | \
w:  lel  le  le   |  lel  *  *  *  lel   | 
e3d c2 d2 g3^f e4  | e2 z2 c2 d2 e2 ^f2 g4  | 
w:  li   *  *  *  Ah   |  *  be li  yâ *  rim   | 
^f4 g2 f2 f3e d2 e2  | f8 e2 d2 c2 f2  | \
w:  be *  li  mî *  rim_ a  |  man    | 
e2 d2 c2 B2 A2 A4 B2  | A2 B2 A2 B2 A2 e2 d2 c2  | 
w:  *  *  *  *  *  Zülf_ i   |  an  | 
c2 B4 A2 A4 d4  | d4 c2 d2 e3d c4  | \
w:  ber   |  *  bû   | 
c2 z2 B2 c2 d3c B4  | c3B A4 A2 c2 B2 A2  | 
w:  *  bû   |  *  *  *  bû  | 
B3A ^G2 A2 G2 A2 G2 F2  | A8 A4 c4  | \
w:  *  *  *  *  *  *  *  la  |  ra   | 
z2 A4 B2 A2 e2 d2 c2  | c2 B4 A2 ^G2 A2 {c}B2 BA  | 
w:  ra   |  vay    | 
A8 A4 z4  | d8 c2 d2 {f}e2 ed  | d8 z2 d2 c2 d2  | \
w:   |  Ah   |  *  düş *  me  | 
e4 f2 e2 dc =B2 c2 d2  | 
w:  sin   | 
c4 d8 z4  | d4 e2 d2 c4 d2 c2  | B4 c2 B2 A4 A2 A2  | \
w:  mis  |  kin   |   | 
A8 A2 c2 B2 A2  | A^G F2 G2 A2 G2 A2 G2 ^F2  | 
w:  *  kin   |  *  *  *  *  *  *  *  *  gö  | 
A8 A4 c4  | z2 A4 B2 A2 e2 d2 c2  | c2 B4 A2 ^G2 A2 {c}B2 BA  | \
w:  nül   |  nül  |  ler   | 
A8 A4 z4  | 
w:   | 
e3d c2 d2 c2 d2 {f}e2 ed  | d6 c2 z2 =B4 c2  | \
w:  ah    |  *  *  Zülf_ i   | 
d4 c2 d2 e2 g2 f2 e2  | 
w:  an  | 
e3d c2 d2 c4 d4  | d2 z2 d8 e4  | e8 e2 f2 e2 f2  | \
w:  ber   |  *  bû   |  *  bû   | 
e4 f2 e2 d2 c2 d4  | 
w:   | 
d2 z2 c2 d2 e2 f2 e2 d2  | e3d c2 d2 c2 d2 {f}e2 ed  | \
w:  *  bû *  *  *  *  la  |  ra    | 
d8 d4 z4  | d4 e2 d2 c4 d2 c2  | 
w:   |  Öm *  *  rüm   | 
B4 c2 B2 A6 A2  | A2 c2 B2 A2 A3G ^F2 G2  | \
w:  câ *  *  nım  a  |  man    | 
A2 B2 A2 G2 z2 A4 =B2  | A4 A2 G2 ^F8  | 
w:  Ah  *  *  *  ye  le   |  lel  *  *  li   | 
G4 ^F2 E2 F2 G2 F2 G2  | A8 z4 A2 A2  | \
w:  te  re  li  yel  *  *  le   |  lel   Le  le   | 
B3A B2 c2 B3A G2 G2  | d8 d2 c2 =B2 c2  | 
w:  lel  *  *  *  *  *  le  le   |  lel  *  *  le  le   | 
d8 z4 c2 d2  | e2 f2 e2 d2 e2 g2 f2 e2  | \
w:  lel  le  le   |  lel  *  *  *  lel   | 
e3d c2 d2 g3^f e4  | e2 z2 c2 d2 e2 ^f2 g4  | 
w:  li   *  *  *  Ah   |  *  be li  yâ *  rim   | 
^f4 g2 f2 f3e d2 e2  | f8 e2 d2 c2 f2  | \
w:  be *  li  mî *  rim_ a  |  man    | 
e2 d2 c2 B2 A2 A4 B2  | A2 B2 A2 B2 A2 e2 d2 c2  | 
w:  *  *  *  *  *  Zülf_ i   |  an  | 
c2 B4 A2 A4 d4  | d4 c2 d2 e3d c4  | \
w:  ber   |  *  bû   | 
c2 z2 B2 c2 d3c B4  | c3B A4 A2 c2 B2 A2  | 
w:  *  bû   |  *  *  *  bû  | 
B3A ^G2 A2 G2 A2 G2 F2  | A8 A4 c4  | \
w:  *  *  *  *  *  *  *  la  |  ra   | 
z2 A4 B2 A2 e2 d2 c2  | c2 B4 A2 ^G2 A2 {c}B2 BA  | 
w:  ra   |  vay    | 
A8 A4 z4  | d4 e12  | e6 d2 e3d =c2 d2  | \
w:   |  Ah   |  *  *  ga  | 
e6 ^f2 g6 f2  | ^f2 g2 f2 e2 e6 z2  | 
w:  ze   |  hâ  | 
c4 d2 c2 d4 e2 d2  | e4 ^f2 e2 f4 g4  | \
w:  cet   |   | 
^f4 g2 f2 e2 f2 d4  | z4 e2 f2 f4 e2 d2  | 
w:   |  cet  *  *  mi   | 
c4 d8 c2 B2  | A3B A2 B2 A2 e2 d2 c2  | \
w:  ey   |  *  *  *  *  ey    | 
c2 B4 A2 ^G2 A2 {c}B2 BA  | A8 A4 z4  | 
w:   |   | 
d4 e12  | e6 d2 e3d =c2 d2  | e6 ^f2 g8  | \
w:  Meş  |  *  *  şât_ *  *  ı   |  sem  | 
^f4 g2 f2 e2 f2 d4  | d2 z2 c2 d2 e8  | 
w:  *  mû  |  *  ri   | 
e2 z2 c2 d2 e2 ^f2 g4  | ^f4 g2 f2 e2 f2 d4  | \
w:  *  ri   |   | 
d2 z2 ^f2 g2 f4 a4  | z2 ^f4 g2 f2 g2 f2 e2  | 
w:  *  ri  *  *  si  |  yah   | 
e8 e4 z4  | e2 f4 ed d8  | d2 e4 d=c c6 _3/4d2  | \
w:   |  öm *  *  *  rüm   |  câ *  *  *  nım  a  | 
_3/4d3=c _1/4B2 c2 B2 c2 {e}d2 dc  | 
w:  man    | 
=c2 _3/4d2 c2 _1/4B2 z2 c4 d2  | _3/4d2 =c4 _1/4B2 c3B A4  | \
w:  Ah  *  *  *  yel  le   |  lel  *  *  li   | 
=B4 A2 G2 A2 _1/4B2 A2 B2  | =c8-=c2 z2 =B2 ^c2  | 
w:  te  re  li  yel  *  *  le   |  lel   Le  le   | 
d8 d2 z2 c2 d2  | e12 ^f3/2e/ f2  | d8-d2 z2 e2 ^f2  | \
w:  lel  *  le  le   |  lel  lel   |  lel  le  le   | 
g2 a2 g2 ^f2 g2 =b2 a2 ^g2  | 
w:  lel  *  *  *  lel   | 
f3e e4 a8  | a2 z2 ^g2 a2 a4 a4  | ^g4 a2 g2 ^f3e d2 e2  | \
w:  li   *  *  Ah   |  *  be li  yâ rim   |  be *  li  câ *  nım_ a  | 
e8 d4 e2 d2  | 
w:  man    | 
=c3=B A4 c2 B2 c2 d2  | =c3=B A4 c3B A2 B2  | \
w:  Meş *  *  şât_  |  ı  *  *  sem  | 
^G4 A12  | z4 e2 f2 e3d =c4  | 
w:  mû  |  ri   | 
=c2 z2 d2 f2 e2 d2 ^c2 =B2  | =c2 =B2 c2 d2 c3B A4  | \
w:  *  ri   |   | 
=B3A ^G2 A2 G2 A2 G2 AB  | 
w:  ri  *  *  *  *  *  *  si  | 
A2 =B8-=B2 =c3B  | A8 d2 f2 e2 d2  | \
w:  *  yah   |  *  yah   | 
d3=c =B2 c2 B2 c2 B2 A2  | A8 A4 z4  | 
w:  vay    |   | 
d8 c2 d2 {f}e2 ed  | d8 z2 d2 c2 d2  | \
w:  Ah   |  *  ves *  me  | 
e4 f2 e2 dc =B2 c2 d2  | c4 d8 z4  | 
w:  ler   |  çek  | 
d4 e2 d2 c4 d2 c2  | B4 c2 B2 A4 A2 A2  | \
w:  me   |   | 
A8 A2 c2 B2 A2  | A^G F2 G2 A2 G2 A2 G2 ^F2  | 
w:  *  me   |  *  *  *  *  *  *  *  *  ha  | 
A8 A4 c4  | z2 A4 B2 A2 e2 d2 c2  | c2 B4 A2 ^G2 A2 {c}B2 BA  | \
w:  tâ   |  tâ   |  ey   | 
A8 A4 z4  | 
w:   | 
e3d c2 d2 c2 d2 {f}e2 ed  | d6 c2 z2 =B4 c2  | \
w:  ah    |  *  *  Zülf_ i   | 
d4 c2 d2 e2 g2 f2 e2  | 
w:  an  | 
e3d c2 d2 c4 d4  | d2 z2 d8 e4  | e8 e2 f2 e2 f2  | \
w:  ber   |  *  bû   |  *  bû   | 
e4 f2 e2 d2 c2 d4  | 
w:   | 
d2 z2 c2 d2 e2 f2 e2 d2  | e3d c2 d2 c2 d2 {f}e2 ed  | \
w:  *  bû *  *  *  *  la  |  ra   | 
d8 d4 z4  | d4 e2 d2 c4 d2 c2  | 
w:   |  öm *  *  rüm   | 
B4 c2 B2 A6 A2  | A2 c2 B2 A2 A3G ^F2 G2  | \
w:  câ *  *  nım  a  |  man    | 
A2 B2 A2 G2 z2 A4 =B2  | A4 A2 G2 ^F8  | 
w:  Ah  *  *  *  ye  le   |  lel  *  *  li   | 
G4 ^F2 E2 F2 G2 F2 G2  | A8 z4 A2 A2  | \
w:  te  re  li  yel  *  *  le   |  lel   Le  le   | 
B3A B2 c2 B3A G2 G2  | d8 d2 c2 =B2 c2  | 
w:  lel  *  *  *  *  *  le  le   |  lel  *  *  le  le   | 
d8 z4 c2 d2  | e2 f2 e2 d2 e2 g2 f2 e2  | \
w:  lel  le  le   |  lel  *  *  *  lel   | 
e3d c2 d2 g3^f e4  | e2 z2 c2 d2 e2 ^f2 g4  | 
w:  li   *  *  *  Ah   |  *  be li  yâ *  rim   | 
^f4 g2 f2 f3e d2 e2  | f8 e2 d2 c2 f2  | \
w:  be *  li  mî *  rim_ a  |  man    | 
e2 d2 c2 B2 A2 A4 B2  | A2 B2 A2 B2 A2 e2 d2 c2  | 
w:  *  *  *  *  *  Zülf_ i   |  an  | 
c2 B4 A2 A4 d4  | d4 c2 d2 e3d c4  | \
w:  ber   |  *  bû   | 
c2 z2 B2 c2 d3c B4  | c3B A4 A2 c2 B2 A2  | 
w:  *  bû   |  *  *  *  bû  | 
B3A ^G2 A2 G2 A2 G2 F2  | A8 A4 c4  | \
w:  *  *  *  *  *  *  *  la  |  ra   | 
z2 A4 B2 A2 e2 d2 c2  | c2 B4 A2 ^G2 A2 {c}B2 BA  | 
w:  ra   |  vay    | 
A8 A4 z4  | |


